X: 16698
T: Happy Go Lucky Clog
R: hornpipe
M: 4/4
K: Fmajor
|:CFA,C FAcB|Acfa c'4|(3bd'b eg (3faf cf|dBcA GABG|
CFA,C FAcB|Adfa c'4|(3bd'b eg f2cB|1 A2F2 F3z:|2 A2F2F2zc'||
f'c'ge fcAc|fcgc a4|(3gbg eg (3faf cA|dBcA GABc'|
f'c'ge fcAc|fcgc a4|(3gbg eg fcdB|A2F2F3c'|
f'c'ge fcAc|fcgc a4|(3gbg eg (3faf fA|dBcA GABG|
CFA,C FAcB|Acfa c'4|(3bd'b eg fcdB|A2 F2 F4||

